packages/core/src/svgs/nada.svg

<svg width="24" height="24" viewBox="0 0 24 24" fill="none" xmlns="http://www.w3.org/2000/svg">
<g clip-path="url(#clip0_31_14553)">
<path d="M0 0H24V24H0V0Z" fill="url(#paint0_linear_31_14553)"/>
<path d="M12.0001 18.9471C15.8463 18.9471 18.9643 15.8291 18.9643 11.9828C18.9643 8.13657 15.8463 5.01855 12.0001 5.01855C8.15378 5.01855 5.03577 8.13657 5.03577 11.9828C5.03577 15.8291 8.15378 18.9471 12.0001 18.9471Z" fill="url(#paint1_linear_31_14553)"/>
<path d="M15.7586 6.39404C15.8014 6.39404 15.8571 6.39833 15.9 6.42833C16.0029 6.47976 16.0671 6.62119 16.0114 6.81404C15.99 6.8869 15.9814 7.07119 16.0286 7.29404C16.0714 7.50833 16.17 7.73976 16.3414 7.9069L16.4143 7.97976C16.92 8.47261 18.6986 10.2169 18.6986 12.6855C18.7035 13.3144 18.5449 13.9338 18.2384 14.483C17.9319 15.0322 17.4879 15.4924 16.95 15.8183C16.8514 15.8826 16.7529 15.9469 16.65 16.0026C16.7786 16.1312 16.9414 16.3283 17.0786 16.5598C17.3357 17.344 15.1329 18.814 14.1814 17.7469C13.9407 17.492 13.7385 17.2032 13.5814 16.8898C13.1529 16.9326 12.6986 16.9583 12.2229 16.9583C11.8457 16.9583 11.3914 16.9283 10.9071 16.8555C10.8043 17.0226 10.6543 17.2198 10.4486 17.4512C10.0114 17.9398 9.22714 18.0726 8.56714 17.9998C8.23714 17.9655 7.92428 17.8755 7.68857 17.7426C7.45714 17.614 7.27285 17.4212 7.26428 17.1769C7.25571 16.8512 7.39285 16.5255 7.55142 16.2598C7.66714 16.0669 7.80428 15.8955 7.92 15.7712C7.42738 15.4621 7.02218 15.032 6.74308 14.5218C6.46398 14.0116 6.32028 13.4384 6.32571 12.8569C6.32571 10.8255 7.35857 9.38976 8.67857 8.45119C9.88468 7.61241 11.2936 7.1122 12.7586 7.00261C13.9029 6.93833 14.5457 6.82261 14.9271 6.71119C15.2057 6.62547 15.33 6.5569 15.4286 6.50547C15.4629 6.48404 15.4971 6.46261 15.5314 6.44976C15.6171 6.4069 15.6943 6.39404 15.7586 6.39404Z" fill="#17D6FF"/>
<path d="M6.98145 16.1786C6.83573 16.5686 6.89573 16.8901 6.93859 17.0058C7.01573 17.3186 7.52573 17.5287 8.35287 17.5287C9.17573 17.5287 9.93859 17.0444 10.1829 16.5558C10.4229 16.0629 10.4657 15.8315 10.44 15.8101C10.4272 15.7929 8.58002 15.4844 7.66287 15.3301C7.36354 15.5476 7.12698 15.8403 6.97716 16.1786H6.98145Z" fill="#FD8727"/>
<path d="M8.19427 16.1871C7.73999 16.4871 7.7057 16.8171 7.74427 16.9414C7.92427 17.1042 8.49427 17.3014 9.32999 16.7957C10.1743 16.2899 9.48427 15.8485 9.03427 15.6899C8.94427 15.7328 8.64856 15.8871 8.19427 16.1871Z" fill="#D95D15"/>
<path d="M9.87431 16.9758C8.87146 16.6115 8.35717 16.0672 8.24146 15.8358L8.46431 15.6558L10.3415 16.1786C10.1915 16.4443 9.88717 16.9758 9.87003 16.9758H9.87431Z" fill="#F16607"/>
<path d="M9.51432 15.9429C9.77147 16.1572 9.87861 16.4443 9.38147 16.7658C9.01172 16.5916 8.6775 16.3504 8.39575 16.0543C8.60147 15.9258 8.76432 15.8315 8.88004 15.7715L9.51432 15.9429Z" fill="#D43C00"/>
<path d="M7.71861 16.7402C7.86773 16.7402 7.98861 16.6193 7.98861 16.4702C7.98861 16.3211 7.86773 16.2002 7.71861 16.2002C7.56949 16.2002 7.44861 16.3211 7.44861 16.4702C7.44861 16.6193 7.56949 16.7402 7.71861 16.7402Z" fill="#FFECDD"/>
<path d="M7.55139 15.2402L10.5514 15.7074L10.5771 15.7631C10.6071 15.8188 10.6114 15.8917 10.5985 15.9602C10.59 16.0331 10.5642 16.1231 10.5128 16.2259C10.3557 16.5394 10.1536 16.8282 9.91282 17.0831C9.47996 17.5717 8.69139 17.7045 8.03567 17.6317C7.70139 17.5974 7.39282 17.5031 7.15282 17.3745C6.92139 17.2459 6.7371 17.0531 6.72853 16.8088C6.71996 16.4831 6.8571 16.1574 7.01567 15.8917C7.17853 15.6259 7.37139 15.4031 7.50853 15.2831L7.55139 15.2402ZM7.62853 15.4974C7.51282 15.6131 7.35425 15.7974 7.22139 16.0159C7.07139 16.2645 6.96425 16.5431 6.96853 16.8002C6.97282 16.9202 7.0671 17.0488 7.26853 17.1645C7.46996 17.2759 7.75282 17.3617 8.06139 17.3917C8.6871 17.4602 9.3771 17.3274 9.73282 16.9202C9.95885 16.6848 10.1494 16.4177 10.2985 16.1274C10.3294 16.0621 10.351 15.9929 10.3628 15.9217L7.62853 15.4974Z" fill="#D43C00"/>
<path d="M16.5858 16.4741C16.7315 16.8683 16.6715 17.1898 16.6286 17.3012C16.5429 17.6141 16.0415 17.8241 15.2143 17.8241C14.3872 17.8241 13.6243 17.3398 13.3843 16.8512C13.1443 16.3583 13.1015 16.1269 13.1229 16.1055C13.14 16.0926 14.9829 15.7798 15.9043 15.6255C16.2005 15.8441 16.434 16.1367 16.5815 16.4741H16.5858Z" fill="#FD8727"/>
<path d="M15.3685 16.483C15.8228 16.783 15.8571 17.113 15.8185 17.2373C15.6385 17.4001 15.0728 17.5973 14.2328 17.0916C13.3885 16.5858 14.0785 16.1444 14.5285 15.9858C14.6228 16.0287 14.9185 16.183 15.3685 16.483Z" fill="#D95D15"/>
<path d="M13.6929 17.2717C14.6914 16.9117 15.21 16.3631 15.3214 16.1359L15.0986 15.9517L13.2214 16.4745C13.3714 16.7402 13.6757 17.2759 13.6929 17.2759V17.2717Z" fill="#F16607"/>
<path d="M14.0485 16.2431C13.7914 16.4531 13.6885 16.7445 14.1857 17.0617C14.5539 16.8871 14.8866 16.6459 15.1671 16.3502C14.9614 16.2217 14.7985 16.1274 14.6871 16.0674L14.0485 16.2431Z" fill="#D43C00"/>
<path d="M15.8443 17.0356C15.6951 17.0356 15.5743 16.9147 15.5743 16.7656C15.5743 16.6165 15.6951 16.4956 15.8443 16.4956C15.9934 16.4956 16.1143 16.6165 16.1143 16.7656C16.1143 16.9147 15.9934 17.0356 15.8443 17.0356Z" fill="#FFECDD"/>
<path d="M16.0158 15.5356L13.0158 16.0071L12.9858 16.0585C12.9588 16.1205 12.9514 16.1893 12.9643 16.2556C12.9729 16.3285 13.0029 16.4185 13.05 16.5214C13.1443 16.7356 13.3243 17.0142 13.65 17.3785C14.0829 17.8671 14.8715 17.9999 15.5315 17.9271C15.8615 17.8928 16.1743 17.8028 16.41 17.6699C16.6415 17.5414 16.8258 17.3485 16.8343 17.1042C16.8429 16.7785 16.7058 16.4528 16.5472 16.1871C16.4116 15.9637 16.2474 15.7591 16.0586 15.5785L16.0158 15.5356ZM15.9343 15.7928C16.0543 15.9085 16.2086 16.0928 16.3415 16.3114C16.4915 16.5599 16.5986 16.8385 16.5943 17.0956C16.59 17.2156 16.4958 17.3442 16.2943 17.4599C16.0929 17.5714 15.8143 17.6571 15.5015 17.6914C14.8758 17.7599 14.1858 17.6228 13.83 17.2199C13.6052 16.9829 13.4161 16.7144 13.2686 16.4228C13.2363 16.3577 13.2132 16.2885 13.2 16.2171L15.9343 15.7928Z" fill="#D43C00"/>
<path d="M12.7501 16.47L10.9586 16.3843C9.0172 16.3543 7.51292 15.5914 6.68577 14.6229C6.1972 14.0443 6.0472 13.2943 5.90149 12.8614L6.12863 10.9543L6.68577 9.83573L7.41863 8.79001L8.63577 7.90287L10.5129 7.04144L11.9915 6.79715L13.6629 6.61287L14.8115 6.29573L15.2143 6.1543L15.3558 6.29573V6.88287L15.6729 7.64144L16.6158 8.50287L17.3058 9.56144L17.7643 10.68L18.0815 12L17.9786 13.23L17.3058 14.52L16.5043 15.2486L15.3558 15.8272L12.7501 16.47Z" fill="url(#paint2_linear_31_14553)"/>
<path d="M10.1443 7.87281C11.7601 7.10996 13.8515 6.92567 14.6958 6.92996C14.7386 7.11853 14.9143 7.60281 15.3129 8.00138C15.8058 8.48996 17.3786 10.2428 17.3786 11.9785H18.1072L17.8415 10.5685L16.9072 8.97424L15.5572 7.48281L15.3129 6.63853L15.4158 6.13281H15.1458L14.5801 6.43281L13.2215 6.63853L11.5929 6.84424L9.98149 7.25567L8.16863 8.12995L7.34577 8.97424L6.50149 10.0457L6.09006 11.0314L5.86292 12.7928L6.42863 12.96C6.42863 9.93424 8.13006 8.83281 10.1443 7.87281Z" fill="url(#paint3_linear_31_14553)"/>
<path d="M10.8557 9.5527C8.30994 10.1013 7.90709 12.017 8.0228 12.9084L15.9299 11.6741C15.0814 10.6284 14.0357 8.86698 10.8557 9.5527Z" fill="url(#paint4_linear_31_14553)"/>
<path d="M11.31 8.54565C11.2671 8.47708 11.2157 8.30565 11.3957 8.1685C11.6229 7.99707 11.7729 8.0485 11.85 8.11279C11.9271 8.17708 11.9571 8.32707 11.7686 8.50279C11.58 8.67422 11.3829 8.62708 11.31 8.54565ZM9.33 9.32993C9.25714 9.14136 9.23572 8.70422 9.75 8.46422C10.3929 8.1685 10.7271 8.38279 10.8814 8.58422C11.0314 8.78136 11.0229 9.17136 10.4657 9.48422C9.90857 9.80136 9.45857 9.56993 9.33 9.32993Z" fill="#FFFEF9"/>
<path d="M12.0086 15.9126C14.456 15.9126 16.44 15.0607 16.44 14.0098C16.44 12.9589 14.456 12.1069 12.0086 12.1069C9.56117 12.1069 7.57715 12.9589 7.57715 14.0098C7.57715 15.0607 9.56117 15.9126 12.0086 15.9126Z" fill="url(#paint5_linear_31_14553)"/>
<path d="M7.43138 13.7616C7.79825 13.7616 8.09566 13.3644 8.09566 12.8744C8.09566 12.3845 7.79825 11.9873 7.43138 11.9873C7.0645 11.9873 6.76709 12.3845 6.76709 12.8744C6.76709 13.3644 7.0645 13.7616 7.43138 13.7616Z" fill="#792207"/>
<path d="M7.48282 12.6041C7.62011 12.6041 7.7314 12.4928 7.7314 12.3555C7.7314 12.2182 7.62011 12.1069 7.48282 12.1069C7.34554 12.1069 7.23425 12.2182 7.23425 12.3555C7.23425 12.4928 7.34554 12.6041 7.48282 12.6041Z" fill="#F6FEF8"/>
<path d="M13.3714 14.8329C13.7383 14.8329 14.0357 14.4357 14.0357 13.9457C14.0357 13.4558 13.7383 13.0586 13.3714 13.0586C13.0046 13.0586 12.7072 13.4558 12.7072 13.9457C12.7072 14.4357 13.0046 14.8329 13.3714 14.8329Z" fill="#792207"/>
<path d="M13.4229 13.6759C13.5602 13.6759 13.6715 13.5646 13.6715 13.4273C13.6715 13.29 13.5602 13.1787 13.4229 13.1787C13.2856 13.1787 13.1743 13.29 13.1743 13.4273C13.1743 13.5646 13.2856 13.6759 13.4229 13.6759Z" fill="#F6FEF8"/>
<path d="M9.39423 13.5255C9.45423 13.4955 9.5228 13.5255 9.55708 13.5812L9.56137 13.5941C9.60423 13.6798 9.66423 13.8127 9.74137 13.9284C9.78423 13.9884 9.82708 14.0355 9.86566 14.0698C9.90423 14.1041 9.92994 14.1127 9.94708 14.1127C10.0499 14.1127 10.1614 14.0784 10.2642 14.0227C10.3671 13.967 10.4528 13.8984 10.5128 13.8427C10.5241 13.8314 10.5374 13.8225 10.5521 13.8164C10.5668 13.8103 10.5826 13.8072 10.5985 13.8072C10.6144 13.8072 10.6302 13.8103 10.6449 13.8164C10.6596 13.8225 10.673 13.8314 10.6842 13.8427C10.6955 13.8539 10.7044 13.8673 10.7105 13.882C10.7166 13.8967 10.7197 13.9125 10.7197 13.9284C10.7197 13.9443 10.7166 13.9601 10.7105 13.9748C10.7044 13.9895 10.6955 14.0028 10.6842 14.0141C10.6071 14.087 10.4999 14.1684 10.3757 14.237C10.2471 14.3012 10.1014 14.3527 9.94708 14.3527C9.84851 14.3527 9.77137 14.3055 9.70708 14.2541C9.6444 14.1974 9.58962 14.1325 9.54423 14.0612C9.45851 13.9327 9.38566 13.787 9.34708 13.7012L9.33851 13.6841C9.30851 13.6241 9.33851 13.5555 9.39423 13.5255Z" fill="#792207"/>
<path d="M15.2229 14.9982C15.3443 15.1245 15.5602 15.1138 15.7053 14.9744C15.8503 14.8349 15.8695 14.6196 15.7481 14.4933C15.6267 14.367 15.4107 14.3777 15.2657 14.5171C15.1207 14.6565 15.1015 14.8719 15.2229 14.9982Z" fill="#FBF9EB"/>
<path fill-rule="evenodd" clip-rule="evenodd" d="M15.2272 6.26137C15.1806 6.26716 15.1355 6.2817 15.0943 6.30422C15.0772 6.30422 15.06 6.32137 15.03 6.33422C14.94 6.38565 14.7729 6.47994 14.46 6.57422C13.7332 6.75475 12.9887 6.85535 12.24 6.87422C10.8196 6.98135 9.45379 7.46672 8.28431 8.27994C7.01574 9.17994 6.03431 10.5514 6.03431 12.4885C6.03431 14.0142 6.95574 14.9742 8.13431 15.5614C9.24951 16.077 10.4628 16.346 11.6915 16.3499C13.65 16.3499 15.2143 15.9514 16.2815 15.2485C16.787 14.9452 17.2047 14.5152 17.4933 14.0012C17.7819 13.4871 17.9314 12.9066 17.9272 12.3171C17.9272 9.95137 16.2129 8.27565 15.7072 7.77851C15.4746 7.56521 15.3168 7.28271 15.2572 6.97279C15.2112 6.77718 15.2083 6.57393 15.2486 6.37708C15.2657 6.31279 15.2572 6.28279 15.2529 6.27422V6.26565L15.2615 6.27422L15.2229 6.25279L15.24 6.26137H15.2443H15.2272ZM15.3643 6.05565C15.3215 6.03061 15.2724 6.01869 15.2229 6.02137C15.1629 6.02137 15.0857 6.04279 14.9957 6.08137L14.8929 6.13279C14.7986 6.18851 14.67 6.26137 14.3915 6.34279C14.0143 6.44994 13.3672 6.56994 12.2272 6.63422C11.0615 6.69851 9.4586 7.14851 8.14288 8.08279C6.82717 9.02137 5.79431 10.4528 5.79431 12.4885C5.79431 14.1342 6.79717 15.1628 8.02288 15.7757C9.1713 16.3081 10.4213 16.5859 11.6872 16.5899C13.68 16.5899 15.2957 16.1871 16.4143 15.4499C16.953 15.1245 17.3978 14.6646 17.7051 14.1154C18.0124 13.5661 18.1716 12.9464 18.1672 12.3171C18.1672 9.84851 16.3843 8.10422 15.8786 7.61137L15.8057 7.53851C15.6343 7.36708 15.54 7.13994 15.4972 6.92565C15.4578 6.76717 15.452 6.60223 15.48 6.44137C15.5315 6.25279 15.4715 6.10708 15.3643 6.05565Z" fill="#E7B45B"/>
<path fill-rule="evenodd" clip-rule="evenodd" d="M11.9999 19.2687C12.9567 19.2687 13.9041 19.0802 14.7881 18.7141C15.672 18.348 16.4752 17.8113 17.1517 17.1348C17.8283 16.4582 18.3649 15.655 18.7311 14.7711C19.0972 13.8872 19.2857 12.9398 19.2857 11.983C19.2857 11.0262 19.0972 10.0788 18.7311 9.19486C18.3649 8.31091 17.8283 7.50774 17.1517 6.8312C16.4752 6.15466 15.672 5.618 14.7881 5.25186C13.9041 4.88572 12.9567 4.69727 11.9999 4.69727C10.0677 4.69727 8.21451 5.46487 6.84817 6.8312C5.48183 8.19754 4.71423 10.0507 4.71423 11.983C4.71423 13.9153 5.48183 15.7684 6.84817 17.1348C8.21451 18.5011 10.0677 19.2687 11.9999 19.2687ZM11.9999 18.8573C13.8186 18.8573 15.5627 18.1348 16.8487 16.8489C18.1346 15.5629 18.8571 13.8188 18.8571 12.0001C18.8571 10.1815 18.1346 8.43735 16.8487 7.15139C15.5627 5.86543 13.8186 5.14298 11.9999 5.14298C10.1813 5.14298 8.43718 5.86543 7.15122 7.15139C5.86525 8.43735 5.1428 10.1815 5.1428 12.0001C5.1428 13.8188 5.86525 15.5629 7.15122 16.8489C8.43718 18.1348 10.1813 18.8573 11.9999 18.8573Z" fill="#FEFEFC"/>
</g>
<defs>
<linearGradient id="paint0_linear_31_14553" x1="3.48857" y1="1.51286" x2="16.1443" y2="21.9943" gradientUnits="userSpaceOnUse">
<stop stop-color="#009CFC"/>
<stop offset="1" stop-color="#016FD1"/>
</linearGradient>
<linearGradient id="paint1_linear_31_14553" x1="12.0001" y1="5.02284" x2="12.0001" y2="18.9471" gradientUnits="userSpaceOnUse">
<stop stop-color="#7DEAF9"/>
<stop offset="1" stop-color="#C9F6FC"/>
</linearGradient>
<linearGradient id="paint2_linear_31_14553" x1="11.9915" y1="6.1543" x2="11.9915" y2="16.47" gradientUnits="userSpaceOnUse">
<stop stop-color="#FDDC2A"/>
<stop offset="1" stop-color="#FFD829"/>
</linearGradient>
<linearGradient id="paint3_linear_31_14553" x1="11.9872" y1="9.1971" x2="11.9872" y2="12.96" gradientUnits="userSpaceOnUse">
<stop stop-color="#FFFF79"/>
<stop offset="0.94" stop-color="#FFFF79" stop-opacity="0"/>
</linearGradient>
<linearGradient id="paint4_linear_31_14553" x1="11.6999" y1="9.39841" x2="11.9657" y2="12.9084" gradientUnits="userSpaceOnUse">
<stop stop-color="#FCC216"/>
<stop offset="1" stop-color="#FCC216" stop-opacity="0"/>
</linearGradient>
<linearGradient id="paint5_linear_31_14553" x1="7.88572" y1="13.7098" x2="15.9386" y2="15.5055" gradientUnits="userSpaceOnUse">
<stop stop-color="#FF9503"/>
<stop offset="1" stop-color="#FF9503" stop-opacity="0"/>
</linearGradient>
<clipPath id="clip0_31_14553">
<rect width="24" height="24" fill="white"/>
</clipPath>
</defs>
</svg>

<svg xmlns="http://www.w3.org/2000/svg" width="24" height="24" fill="none" viewBox="0 0 24 24"><g clip-path="url(#a)"><path fill="url(#b)" d="M0 0h24v24H0z"/><path fill="url(#c)" d="M12 18.947A6.964 6.964 0 1 0 12 5.02a6.964 6.964 0 0 0 0 13.928"/><path fill="#17D6FF" d="M15.759 6.394c.042 0 .098.004.141.034.103.052.167.193.111.386-.021.073-.03.257.018.48.042.214.141.446.312.613l.073.073c.506.493 2.285 2.237 2.285 4.705a3.63 3.63 0 0 1-1.749 3.133q-.147.1-.3.185c.129.128.291.325.429.557.257.784-1.946 2.254-2.898 1.187a3.6 3.6 0 0 1-.6-.857q-.643.066-1.358.068c-.377 0-.832-.03-1.316-.102a4.4 4.4 0 0 1-.458.595c-.438.489-1.222.622-1.882.549a2.3 2.3 0 0 1-.878-.257c-.232-.129-.416-.322-.425-.566-.008-.326.129-.651.287-.917.116-.193.253-.365.369-.489a3.4 3.4 0 0 1-1.594-2.914c0-2.031 1.033-3.467 2.353-4.406a8.2 8.2 0 0 1 4.08-1.448c1.144-.065 1.787-.18 2.168-.292.279-.086.403-.154.502-.206q.051-.034.102-.055a.5.5 0 0 1 .228-.056"/><path fill="#FD8727" d="M6.981 16.179c-.145.39-.085.711-.042.827.077.313.587.523 1.414.523.823 0 1.586-.485 1.83-.973.24-.493.283-.725.257-.746-.013-.017-1.86-.326-2.777-.48a2.1 2.1 0 0 0-.686.849z"/><path fill="#D95D15" d="M8.194 16.187c-.454.3-.488.63-.45.754.18.163.75.36 1.586-.145.844-.506.154-.947-.296-1.106a8 8 0 0 0-.84.497"/><path fill="#F16607" d="M9.874 16.976c-1.003-.364-1.517-.909-1.633-1.14l.223-.18 1.877.523c-.15.265-.454.797-.471.797z"/><path fill="#D43C00" d="M9.514 15.943c.257.214.365.501-.133.823a3.3 3.3 0 0 1-.985-.712q.309-.192.484-.282z"/><path fill="#FFECDD" d="M7.719 16.74a.27.27 0 1 0 0-.54.27.27 0 0 0 0 .54"/><path fill="#D43C00" d="m7.551 15.24 3 .467.026.056c.03.056.034.129.021.197a.8.8 0 0 1-.085.266c-.157.313-.36.602-.6.857-.433.489-1.222.622-1.877.549a2.4 2.4 0 0 1-.883-.258c-.232-.128-.416-.32-.424-.565-.009-.326.128-.652.287-.917.163-.266.355-.489.493-.609zm.078.257c-.116.116-.275.3-.408.519-.15.249-.257.527-.252.784.004.12.098.249.3.364.201.112.484.198.792.228.626.068 1.316-.065 1.672-.472q.34-.354.566-.793a.8.8 0 0 0 .064-.205z"/><path fill="#FD8727" d="M16.586 16.474c.146.394.086.716.043.827-.086.313-.588.523-1.415.523s-1.59-.484-1.83-.973c-.24-.493-.283-.724-.261-.745.017-.013 1.86-.326 2.781-.48a2.1 2.1 0 0 1 .677.848z"/><path fill="#D95D15" d="M15.369 16.483c.454.3.488.63.45.754-.18.163-.746.36-1.586-.145-.844-.506-.155-.948.295-1.106.095.043.39.197.84.497"/><path fill="#F16607" d="M13.693 17.272c.998-.36 1.517-.909 1.628-1.136l-.222-.184-1.878.522c.15.266.455.802.472.802z"/><path fill="#D43C00" d="M14.049 16.243c-.258.21-.36.502.137.819.368-.175.7-.416.981-.712a9 9 0 0 0-.48-.283z"/><path fill="#FFECDD" d="M15.844 17.036a.27.27 0 1 1 0-.54.27.27 0 0 1 0 .54"/><path fill="#D43C00" d="m16.016 15.536-3 .471-.03.051a.33.33 0 0 0-.022.198 1 1 0 0 0 .086.265c.094.215.274.493.6.857.433.49 1.221.622 1.881.55.33-.035.643-.125.879-.258.232-.129.416-.322.424-.566.009-.325-.128-.651-.287-.917a3 3 0 0 0-.488-.609zm-.082.257c.12.116.275.3.408.518.15.249.257.527.252.785-.004.12-.098.248-.3.364-.201.111-.48.197-.793.231-.625.069-1.315-.068-1.671-.471a3.4 3.4 0 0 1-.561-.797.8.8 0 0 1-.069-.206z"/><path fill="url(#d)" d="m12.75 16.47-1.791-.086c-1.942-.03-3.446-.793-4.273-1.761-.489-.579-.639-1.329-.785-1.762l.228-1.907.557-1.118.733-1.046 1.217-.887 1.877-.862 1.479-.244 1.67-.184 1.15-.317.402-.142.142.142v.587l.317.758.943.862.69 1.058.458 1.119.317 1.32-.102 1.23-.673 1.29-.802.729-1.148.578z"/><path fill="url(#e)" d="M10.144 7.873c1.616-.763 3.707-.947 4.552-.943.043.189.218.673.617 1.071.493.489 2.066 2.242 2.066 3.978h.728l-.265-1.41-.935-1.595-1.35-1.491-.244-.844.103-.506h-.27l-.566.3-1.358.206-1.63.205-1.61.412-1.813.874-.823.844-.845 1.072-.41.985-.228 1.762.566.167c0-3.026 1.701-4.127 3.715-5.087"/><path fill="url(#f)" d="M10.856 9.553c-2.546.548-2.949 2.464-2.833 3.355l7.907-1.234c-.849-1.046-1.894-2.807-5.074-2.121"/><path fill="#FFFEF9" d="M11.31 8.546c-.043-.069-.094-.24.086-.377.227-.172.377-.12.454-.056s.107.214-.081.39c-.189.171-.386.124-.459.043m-1.98.784c-.073-.189-.094-.626.42-.866.643-.296.977-.081 1.131.12.15.197.142.587-.415.9-.557.317-1.007.086-1.136-.154"/><path fill="url(#g)" d="M12.009 15.913c2.447 0 4.431-.852 4.431-1.903s-1.984-1.903-4.431-1.903-4.432.852-4.432 1.903c0 1.05 1.984 1.903 4.432 1.903"/><path fill="#792207" d="M7.431 13.762c.367 0 .665-.398.665-.888s-.298-.887-.665-.887-.664.397-.664.887.297.888.664.888"/><path fill="#F6FEF8" d="M7.483 12.604a.249.249 0 1 0 0-.497.249.249 0 0 0 0 .497"/><path fill="#792207" d="M13.371 14.833c.367 0 .665-.397.665-.887s-.298-.887-.665-.887c-.366 0-.664.397-.664.887s.298.887.664.887"/><path fill="#F6FEF8" d="M13.423 13.676a.249.249 0 1 0 0-.497.249.249 0 0 0 0 .497"/><path fill="#792207" d="M9.394 13.526c.06-.03.129 0 .163.055l.004.013c.043.086.103.219.18.334q.066.09.125.142c.038.034.064.043.081.043a.7.7 0 0 0 .317-.09c.103-.056.189-.125.249-.18a.121.121 0 1 1 .171.171 1.6 1.6 0 0 1-.308.223 1 1 0 0 1-.429.116.38.38 0 0 1-.24-.099 1 1 0 0 1-.163-.193 3 3 0 0 1-.197-.36l-.008-.017c-.03-.06 0-.128.055-.159"/><path fill="#FBF9EB" d="M15.223 14.998c.121.127.337.116.482-.024s.165-.354.043-.48c-.121-.127-.337-.116-.482.023-.145.14-.165.355-.043.481"/><path fill="#E7B45B" fill-rule="evenodd" d="M15.227 6.261a.4.4 0 0 0-.133.043c-.017 0-.034.017-.064.03-.09.052-.257.146-.57.24-.727.18-1.471.281-2.22.3A8 8 0 0 0 8.284 8.28c-1.268.9-2.25 2.271-2.25 4.209 0 1.525.922 2.485 2.1 3.072a8.5 8.5 0 0 0 3.557.789c1.959 0 3.523-.399 4.59-1.102a3.39 3.39 0 0 0 1.646-2.93c0-2.367-1.714-4.042-2.22-4.54a1.47 1.47 0 0 1-.45-.805 1.4 1.4 0 0 1-.008-.596c.017-.064.008-.094.004-.103v-.008l.008.008-.038-.021.017.008h.004zm.137-.205a.25.25 0 0 0-.141-.035.6.6 0 0 0-.227.06l-.103.052a2 2 0 0 1-.502.21c-.377.107-1.024.227-2.164.291-1.165.065-2.768.515-4.084 1.449-1.316.938-2.349 2.37-2.349 4.406 0 1.645 1.003 2.674 2.229 3.287a8.8 8.8 0 0 0 3.664.814c1.993 0 3.609-.403 4.727-1.14a3.63 3.63 0 0 0 1.753-3.133c0-2.468-1.783-4.213-2.288-4.706l-.073-.072a1.2 1.2 0 0 1-.309-.613 1.2 1.2 0 0 1-.017-.485c.051-.188-.008-.334-.116-.385" clip-rule="evenodd"/><path fill="#FEFEFC" fill-rule="evenodd" d="M12 19.269a7.287 7.287 0 0 0 2.788-14.017A7.286 7.286 0 1 0 12 19.269m0-.412a6.857 6.857 0 1 0 0-13.715 6.857 6.857 0 0 0 0 13.715" clip-rule="evenodd"/></g><defs><linearGradient id="b" x1="3.489" x2="16.144" y1="1.513" y2="21.994" gradientUnits="userSpaceOnUse"><stop stop-color="#009CFC"/><stop offset="1" stop-color="#016FD1"/></linearGradient><linearGradient id="c" x1="12" x2="12" y1="5.023" y2="18.947" gradientUnits="userSpaceOnUse"><stop stop-color="#7DEAF9"/><stop offset="1" stop-color="#C9F6FC"/></linearGradient><linearGradient id="d" x1="11.992" x2="11.992" y1="6.154" y2="16.47" gradientUnits="userSpaceOnUse"><stop stop-color="#FDDC2A"/><stop offset="1" stop-color="#FFD829"/></linearGradient><linearGradient id="e" x1="11.987" x2="11.987" y1="9.197" y2="12.96" gradientUnits="userSpaceOnUse"><stop stop-color="#FFFF79"/><stop offset=".94" stop-color="#FFFF79" stop-opacity="0"/></linearGradient><linearGradient id="f" x1="11.7" x2="11.966" y1="9.398" y2="12.908" gradientUnits="userSpaceOnUse"><stop stop-color="#FCC216"/><stop offset="1" stop-color="#FCC216" stop-opacity="0"/></linearGradient><linearGradient id="g" x1="7.886" x2="15.939" y1="13.71" y2="15.505" gradientUnits="userSpaceOnUse"><stop stop-color="#FF9503"/><stop offset="1" stop-color="#FF9503" stop-opacity="0"/></linearGradient><clipPath id="a"><path fill="#fff" d="M0 0h24v24H0z"/></clipPath></defs></svg>
